X:1
T:Wren's Hornpipe, The
R:Hornpipe
M:4/4
L:1/8
K:G
%%printtempo 0
Q:180
"Em"efed "G"B2 dB|"D"A2 GB AFGF|"Em"EFGA BF ~F2|"D"ABdf eB~B2|
"Em"efed "G"B2 dB|"D"A2 GB AFGF|"Em"EFGA B/c/d ef|"Em"gfed "Em"Bee2:|
"Em"efed B/c/d eg|"D"fdd^c dfaf|"Em"gfed Beec|"Bm"dBAd "Em"BE E2|
"Em"efed B/c/d eg|"D"fdd^c dfaf|"Em"bgad gfed|"Bm"BdAd "Em"BE E2|
"Em"efed B/c/d eg|"D"fdd^c dfaf|"Em"gfed B/c/d ef|"G" ~g3a "Em"bgef|
"Em"g2ef gbeg|"D"fdd^c df a2|"Em"bgaf "G"gfed|"Bm"BdAd "Em"BE E2|]
